X: 30924
T: Over The Moor To Maggie
R: reel
M: 4/4
K: Gmajor
G2{A}G2-|G2A {c}BA (3Bcd e|z2{a}ge dB{c}AG|E~A3.Bz AG|EA{c}AG AcBA|
J~G3A BA (3Bcd|.e z{a}ge dB{c}AG|E~G3.Bz{c}AG|EGFA G2z2|B~G3A{c}BA B/c/|
dez {a}gedB{c}A|GE~A3.Bz {c}A|GEA{c}AGAcB|A~G3ABA B/c/|dez {a}gedB{c}A|
GE~G3.Bz{c}A|GEGFAGz2|aJb~g3{c'}age|Jf{a}fg{a}ged2B/c/|de~a3.bz {c'}a|
gea{c'}ag.az {a}g|aJ.b~g3{c'}age|f{a}gf{a}ged2B/c/|de~a3.bz {c'}a|gegfag2z|
aJb~g3{c'}age|f{a}gf{a}ged2B/c/|de~a3.bz {c'}a|gea{c'}ag{b}a{c'}ag|a.bz gJg{c'}age|
f{a}fg{a}ged2B/c/|de~a3.bz {c'}a|gegfaJg2z|zJe4d3-|dc3AB{c}BA|
GE~A3.Bz {c}A|GEA{c}AGABc|d~e3Bd//c//d//c// d B|dc~A3.Bz {c}A|
GE~G3BA{c}A|GEGFAGAB|dJe4d3-|dc3AB{c}BA|GE~A3.Bz {c}A|
GEA{c}AGABc|d~e3Bd/c/ d B|dc~A3.Bz {c}A|GE~G3BA{c}A|GEGFAG2z|

